X: 1
T: Sandy's Muckle Box
C: Bill Hendry
R: reel
Z: 2014 John Chambers <jc:trillian.mit.edu>
N: Suggested tune for The Cuckoo Clock
S: printed copy of unknown origin
M: C|
L: 1/8
K: F
CDE |:\
"F"F2CD- DFAc | d2cd- dcAF | "Gm"G2D2 EGBc | "C7"d2cd- dcAG |
"F"F2CD- DFAc | d2cd- dcAF | "Gm"G2C2 "C7"EGdc | "F"A2"C7"F2 "F"F4 :|
|:\
"F"c2FG- GAc2 | c2F2 GAcF | "Gm"d2GA- ABd2- | "C7"d{c}d-dc dcAG |
[1 "F"c2FG- GAc2 | c2F2 GAcF | "Gm"G2C2 "C7"EGdc | "F"A2"C7"F2 "F"F4 :|
[2 "F"F2CD- DFAc | d2cd- dcAF | "Gm"G2C2 "C7"EGdc | "F"A2"C7"F2 "F"F2 |]
